assets/icons/qvision/widgets.svg

<svg xmlns="http://www.w3.org/2000/svg" height="24" viewBox="0 0 24 24" width="24"><path d="M0 0h24v24H0z" fill="none"/><path d="M13 13v8h8v-8h-8zM3 21h8v-8H3v8zM3 3v8h8V3H3zm13.66-1.31L11 7.34 16.66 13l5.66-5.66-5.66-5.65z"/></svg>

<svg width="24" height="24" viewBox="0 0 24 24" fill="none" xmlns="http://www.w3.org/2000/svg">
<g clip-path="url(#clip0_147_2500)">
<path d="M13 13V21H21V13H13ZM3 21H11V13H3V21ZM3 3V11H11V3H3ZM16.66 1.69L11 7.34L16.66 13L22.32 7.34L16.66 1.69Z" fill="#323232"/>
</g>
<defs>
<clipPath id="clip0_147_2500">
<rect width="24" height="24" fill="white"/>
</clipPath>
</defs>
</svg>
